static/fa/svgs/solid/filter-circle-dollar.svg

<svg xmlns="http://www.w3.org/2000/svg" viewBox="0 0 576 512"><!--! Font Awesome Free 6.1.1 by @fontawesome - https://fontawesome.com License - https://fontawesome.com/license/free (Icons: CC BY 4.0, Fonts: SIL OFL 1.1, Code: MIT License) Copyright 2022 Fonticons, Inc.--><path d="M3.853 22.87A39.994 39.994 0 0 1 40 0h432c15.5 0 29.5 8.904 36.1 22.87 6.7 13.97 4.6 30.5-6 42.46L396.4 195.6C316.2 212.1 255.1 283 255.1 368c0 27.4 7.2 53.4 18.4 76.5-1.7-.8-3.2-1.8-4.7-2.9l-64-48c-8.1-6-12.8-15.5-12.8-25.6v-79.1L9.042 65.33a40 40 0 0 1-5.188-42.46h-.001zM576 368c0 79.5-64.5 144-144 144s-144.9-64.5-144.9-144S352.5 224 432 224s144 64.5 144 144zm-163-36.9c5.1-1.8 12.6-3.2 18.8-3.1 7.3.1 17.1 1.8 26.3 4.1 8.6 2.1 17.3-4 19.4-11.7 2.2-8.6-3.1-17.2-11.6-19.4-5.6-1.4-11.6-2.7-17.9-3.6V288c0-8.8-7.2-16-16-16s-16 7.2-16 16v9.5c-6.1 1.2-12.3 3.2-18.9 6.3-11 6.3-22.2 18.4-21 37.2 1 16 11.7 25.4 21.6 30.7 8.9 4.7 19.8 7.8 28.6 9.4l1.8 1.4c10.2 2.9 17 5.2 23.1 8.3 4.6 2.7 3.9 4.3 3.9 5.7 1 2.4.4 3.7-1 4.5.2.1-.9 2.2-4 3.4-3.8 2.5-10.9 3.8-17.6 2.7-10.4.6-18.5-2.3-29.9-5.9-1.9-.6-3.8-1.2-5.8-1.8-8.5-2.6-17.5 2.1-20.1 10.5-2.6 8.4 2.1 17.4 10.5 20 1.7.5 3.3.2 5.1 1.6 7 2.3 15.1 4.9 23.7 6.6v11.4c0 8.9 7.2 16 16 16s16-7.1 16-16v-10.8c6.2-1.1 12.5-3.1 18.3-6.2 12-6.6 22.2-18.7 20.8-37 .4-16.1-9.4-26.2-19.6-32.2-9.4-5.6-21.3-8.9-30.6-11.6h-.1c-10.5-3-18.3-5.2-23.9-8.2-4.8-2.6-4.8-4-4.8-4.4v-1c-.2-1.1.3-2 .7-2.7.6-.9 1.8-2.1 4.2-4.3z"/></svg>

<svg xmlns="http://www.w3.org/2000/svg" viewBox="0 0 576 512"><!--! Font Awesome Free 6.1.1 by @fontawesome - https://fontawesome.com License - https://fontawesome.com/license/free (Icons: CC BY 4.0, Fonts: SIL OFL 1.1, Code: MIT License) Copyright 2022 Fonticons, Inc. --><path d="M3.853 22.87C10.47 8.904 24.54 0 40 0H472C487.5 0 501.5 8.904 508.1 22.87C514.8 36.84 512.7 53.37 502.1 65.33L396.4 195.6C316.2 212.1 255.1 283 255.1 368C255.1 395.4 262.3 421.4 273.5 444.5C271.8 443.7 270.3 442.7 268.8 441.6L204.8 393.6C196.7 387.6 192 378.1 192 368V288.9L9.042 65.33C-.745 53.37-2.765 36.84 3.854 22.87H3.853zM576 368C576 447.5 511.5 512 432 512C352.5 512 287.1 447.5 287.1 368C287.1 288.5 352.5 224 432 224C511.5 224 576 288.5 576 368zM413 331.1C418.1 329.3 425.6 327.9 431.8 328C439.1 328.1 448.9 329.8 458.1 332.1C466.7 334.2 475.4 328.1 477.5 320.4C479.7 311.8 474.4 303.2 465.9 301C460.3 299.6 454.3 298.3 448 297.4V288C448 279.2 440.8 272 432 272C423.2 272 416 279.2 416 288V297.5C409.9 298.7 403.7 300.7 397.1 303.8C386.1 310.1 374.9 322.2 376.1 341C377.1 357 387.8 366.4 397.7 371.7C406.6 376.4 417.5 379.5 426.3 381.1L428.1 382.5C438.3 385.4 445.1 387.7 451.2 390.8C455.8 393.5 455.1 395.1 455.1 396.5C456.1 398.9 455.5 400.2 454.1 401C454.3 401.1 453.2 403.2 450.1 404.4C446.3 406.9 439.2 408.2 432.5 407.1C422.1 407.7 414 404.8 402.6 401.2C400.7 400.6 398.8 400 396.8 399.4C388.3 396.8 379.3 401.5 376.7 409.9C374.1 418.3 378.8 427.3 387.2 429.9C388.9 430.4 390.5 430.1 392.3 431.5C399.3 433.8 407.4 436.4 416 438.1V449.5C416 458.4 423.2 465.5 432 465.5C440.8 465.5 448 458.4 448 449.5V438.7C454.2 437.6 460.5 435.6 466.3 432.5C478.3 425.9 488.5 413.8 487.1 395.5C487.5 379.4 477.7 369.3 467.5 363.3C458.1 357.7 446.2 354.4 436.9 351.7L436.8 351.7C426.3 348.7 418.5 346.5 412.9 343.5C408.1 340.9 408.1 339.5 408.1 339.1L408.1 338.1C407.9 337 408.4 336.1 408.8 335.4C409.4 334.5 410.6 333.3 413 331.1L413 331.1z"/></svg>
